static/logos/thematic-wordmark-color.svg

<svg width="100" height="16" viewBox="0 0 100 16" fill="none" xmlns="http://www.w3.org/2000/svg">
<g clip-path="url(#clip0_1_735)">
<path fill-rule="evenodd" clip-rule="evenodd" d="M21.3828 2.24829V0.200011H32.4173V2.26898H28.0725V13.5379H25.6863V2.24829H21.3828ZM33.4311 0.200011H33.4173L33.4311 0.179321V0.200011ZM33.4311 0.200011V13.5379H35.8104V9.13104C35.8 8.71249 35.8487 8.29456 35.9552 7.88966C36.1012 7.32256 36.4306 6.81962 36.8921 6.45915C37.3536 6.09867 37.9214 5.90089 38.507 5.89656C39.707 5.89656 40.0035 6.68967 40.0035 7.85518V13.5931H42.2932V7.38621C42.2932 4.84829 41.0863 3.73794 39.0173 3.73794C38.3539 3.72542 37.6999 3.89576 37.1269 4.23029C36.554 4.56483 36.0842 5.05065 35.769 5.63449H35.7276C35.7562 5.36649 35.7701 5.09711 35.769 4.8276V0.200011H33.4311ZM52.7276 8.26897C52.7276 5.73105 51.2656 3.71725 48.5483 3.71725V3.75174C45.7414 3.75174 43.7621 5.8207 43.7621 8.77242C43.7407 9.44104 43.8574 10.1069 44.1047 10.7285C44.3521 11.3501 44.7249 11.9139 45.1998 12.385C45.6749 12.8561 46.2418 13.2243 46.8654 13.4666C47.4889 13.7088 48.1558 13.82 48.8242 13.7931C50.2123 13.7986 51.5569 13.3097 52.6173 12.4138L51.7276 10.6759C50.9469 11.3166 49.9782 11.6846 48.969 11.7241C48.2628 11.7525 47.5737 11.5023 47.0501 11.0277C46.5264 10.553 46.2101 9.8918 46.169 9.18621H52.6725C52.6725 9.18621 52.7276 8.55173 52.7276 8.26897ZM50.2543 6.82709C50.3387 7.07069 50.3707 7.32938 50.3483 7.58621H46.2104C46.2645 7.02787 46.5291 6.511 46.9505 6.14078C47.372 5.77056 47.9187 5.57473 48.4794 5.59311C48.7371 5.58729 48.9932 5.63587 49.2309 5.73567C49.4686 5.83546 49.6826 5.98424 49.8589 6.1723C50.0353 6.36036 50.17 6.58347 50.2543 6.82709ZM54.3828 3.97242H54.369L54.3828 3.93794V3.97242ZM54.3828 3.97242V13.5379H56.7276V9.32414C56.7163 8.91207 56.7534 8.50007 56.838 8.09656C57.1345 6.87587 57.9276 5.89656 59.1483 5.89656C60.2587 5.89656 60.4242 6.77932 60.4242 7.8138V13.5379H62.7621V9.32414C62.7434 8.9269 62.7712 8.52876 62.8449 8.13794C63.1207 6.93794 63.9138 5.95863 65.1138 5.95863C66.2035 5.95863 66.4104 6.78622 66.4104 7.87587V13.6H68.7552V7.39311C68.7552 4.86898 67.6311 3.74484 65.6725 3.74484C65.0076 3.75223 64.3571 3.9395 63.7901 4.28677C63.223 4.63404 62.7605 5.12836 62.4518 5.71725C62.3041 5.11278 61.9445 4.58131 61.4383 4.21939C60.9321 3.85747 60.3129 3.68909 59.6932 3.74484C59.0489 3.76727 58.4229 3.96461 57.8823 4.31573C57.3416 4.66685 56.9067 5.15849 56.6242 5.73794H56.5828C56.611 5.50915 56.6248 5.27881 56.6242 5.04829V3.97242H54.3828ZM76.0794 7.51725H75.7621L75.769 7.55173C74.238 7.55173 70.1897 7.75863 70.1897 10.8069C70.1897 12.7241 71.7069 13.7931 73.3897 13.7931C73.9835 13.8139 74.5704 13.6603 75.0773 13.3515C75.5849 13.0427 75.9904 12.592 76.2449 12.0552C76.2325 12.2849 76.2325 12.5151 76.2449 12.7448V13.5379H78.4104V7.53104C78.4104 5.09656 76.969 3.71725 74.4863 3.71725C73.1649 3.7134 71.8766 4.12606 70.8035 4.89656L71.6794 6.6138C72.438 6.0704 73.3338 5.75028 74.2656 5.68967C75.3001 5.68967 76.0794 6.12415 76.0794 7.38621V7.51725ZM76.1069 9.4138C76.1069 10.5517 75.2173 11.931 73.9759 11.931H73.9828C73.8056 11.9534 73.6256 11.9381 73.4552 11.8861C73.2842 11.8342 73.1263 11.7468 72.9911 11.6296C72.8566 11.5124 72.7483 11.3681 72.6732 11.2062C72.598 11.0442 72.558 10.8682 72.5552 10.6897C72.5552 9.35863 74.5001 9.18621 75.7001 9.18621H76.1069V9.4138ZM79.4725 5.99311H80.6656V9.99311C80.6656 13.2138 83.2725 13.6069 84.5828 13.6069C84.8138 13.6083 85.0449 13.5899 85.2725 13.5517V11.4828C85.1345 11.5121 84.9932 11.5259 84.8518 11.5241C84.6049 11.5512 84.3552 11.5236 84.1207 11.4432C83.8856 11.3629 83.6718 11.2318 83.4932 11.0593C83.3145 10.8868 83.1766 10.6772 83.0883 10.4452C83 10.2132 82.9642 9.96469 82.9828 9.71725V5.99311H85.1276V4.08967H82.9828V1.33105H80.6932V4.08967H79.4725V5.99311ZM89.0587 2.30346H86.7345V0.179321H89.0587V2.30346ZM89.0794 13.5379H86.7345V3.93794H89.0794V13.5379ZM97.6587 4.04662C97.0359 3.80067 96.369 3.68845 95.7 3.71725L95.7138 3.75174C95.0421 3.72324 94.3725 3.83286 93.7449 4.07382C93.1173 4.31479 92.5463 4.68196 92.0669 5.15262C91.5869 5.62327 91.209 6.18738 90.9559 6.81002C90.7035 7.43263 90.5807 8.10056 90.5966 8.77242C90.5766 9.44538 90.6966 10.1151 90.9476 10.7397C91.1994 11.3642 91.5773 11.9299 92.058 12.4015C92.538 12.873 93.1111 13.2399 93.74 13.4795C94.3697 13.719 95.0414 13.8257 95.7138 13.7931C96.4332 13.8009 97.1469 13.6632 97.8118 13.3883C98.4766 13.1133 99.0794 12.7068 99.5828 12.1931L98.6794 10.4966C97.938 11.225 96.958 11.661 95.9207 11.7241C95.529 11.7272 95.1407 11.6509 94.78 11.4997C94.4187 11.3486 94.0918 11.1257 93.8194 10.8446C93.5463 10.5636 93.3332 10.2301 93.1932 9.86449C93.0532 9.49883 92.9883 9.10856 93.0035 8.71725C92.9835 8.33097 93.0435 7.94476 93.1787 7.58249C93.3138 7.22021 93.5221 6.88953 93.7904 6.61093C94.0587 6.33232 94.3814 6.11171 94.738 5.96275C95.0952 5.81378 95.4787 5.73961 95.8656 5.74484C96.7697 5.7826 97.6283 6.15068 98.2794 6.77932L99.3138 5.14484C98.8456 4.66674 98.2814 4.29257 97.6587 4.04662Z" fill="black"/>
<path d="M8.47586 0.220703L0 8.84828L6.06207 15.0552L7.58621 13.4414L3.10345 8.84828L11.5724 0.220703H8.47586Z" fill="#4498F7"/>
<path fill-rule="evenodd" clip-rule="evenodd" d="M13.3439 0.220764L4.875 8.84837L10.937 15.0139L19.4129 6.39318V0.220764H13.3439ZM15.1922 6.42766C14.8185 6.43451 14.4511 6.32993 14.137 6.12726C13.8229 5.92459 13.5762 5.63299 13.4284 5.28961C13.2806 4.94625 13.2383 4.56665 13.307 4.19919C13.3758 3.83172 13.5523 3.49303 13.8142 3.22627C14.0761 2.9595 14.4114 2.77673 14.7776 2.70124C15.1437 2.62576 15.524 2.66097 15.8701 2.80241C16.2161 2.94383 16.5122 3.18508 16.7207 3.4954C16.9291 3.80572 17.0405 4.17108 17.0405 4.5449C17.0369 5.03756 16.8381 5.50869 16.4879 5.85511C16.1375 6.20154 15.6642 6.39501 15.1715 6.39318L15.1922 6.42766Z" fill="#4498F7"/>
</g>
<defs>
<clipPath id="clip0_1_735">
<rect width="100" height="15.1724" fill="white"/>
</clipPath>
</defs>
</svg>

<svg xmlns="http://www.w3.org/2000/svg" width="400" height="64" fill="none" viewBox="0 0 100 16"><g clip-path="url(#a)"><path fill="#000" fill-rule="evenodd" d="M21.383 2.248V.2h11.034v2.069h-4.345v11.269h-2.386V2.248h-4.303ZM33.43.2h-.014l.014-.02V.2Zm0 0v13.338h2.38V9.13c-.011-.419.038-.836.144-1.241a2.655 2.655 0 0 1 2.552-1.993c1.2 0 1.497.793 1.497 1.958v5.738h2.29V7.386c0-2.538-1.208-3.648-3.277-3.648a3.614 3.614 0 0 0-3.248 1.896h-.041c.028-.268.042-.537.041-.806V.2h-2.338Zm19.297 8.069c0-2.538-1.462-4.552-4.18-4.552v.035c-2.807 0-4.786 2.069-4.786 5.02a4.87 4.87 0 0 0 5.062 5.021 5.841 5.841 0 0 0 3.793-1.38l-.89-1.737a4.634 4.634 0 0 1-2.758 1.048 2.696 2.696 0 0 1-2.8-2.538h6.504s.055-.634.055-.917Zm-2.474-1.442c.085.244.117.502.094.76H46.21a2.207 2.207 0 0 1 2.27-1.994 1.834 1.834 0 0 1 1.774 1.234Zm4.129-2.855h-.014l.014-.034v.034Zm0 0v9.566h2.345V9.324a5.277 5.277 0 0 1 .11-1.227c.297-1.221 1.09-2.2 2.31-2.2 1.11 0 1.276.882 1.276 1.917v5.724h2.338V9.324c-.019-.397.01-.795.083-1.186.276-1.2 1.069-2.18 2.269-2.18 1.09 0 1.296.828 1.296 1.918V13.6h2.345V7.393c0-2.524-1.124-3.648-3.082-3.648a3.683 3.683 0 0 0-3.221 1.972 2.6 2.6 0 0 0-2.759-1.972 3.551 3.551 0 0 0-3.069 1.993h-.041a5.52 5.52 0 0 0 .041-.69V3.972h-2.241Zm21.696 3.545h-.317l.007.035c-1.531 0-5.58.207-5.58 3.255 0 1.917 1.518 2.986 3.2 2.986a3.04 3.04 0 0 0 2.856-1.738c-.013.23-.013.46 0 .69v.793h2.165V7.53c0-2.434-1.441-3.814-3.924-3.814a6.282 6.282 0 0 0-3.683 1.18l.876 1.717a4.998 4.998 0 0 1 2.587-.924c1.034 0 1.813.434 1.813 1.696v.131Zm.028 1.897c0 1.138-.89 2.517-2.131 2.517h.007a1.265 1.265 0 0 1-1.31-.725 1.274 1.274 0 0 1-.118-.516c0-1.331 1.945-1.504 3.145-1.504h.407v.228Zm3.365-3.42h1.194v4c0 3.22 2.606 3.613 3.917 3.613.23.001.462-.017.69-.055v-2.07a1.91 1.91 0 0 1-.421.042 1.687 1.687 0 0 1-1.764-1.079 1.69 1.69 0 0 1-.105-.728V5.993h2.145V4.09h-2.145V1.33h-2.29V4.09h-1.22v1.903Zm9.587-3.69h-2.325V.178h2.325v2.124Zm.02 11.234h-2.344v-9.6h2.344v9.6Zm8.58-9.491a4.772 4.772 0 0 0-1.959-.33l.014.035a4.91 4.91 0 0 0-5.117 5.02 4.887 4.887 0 0 0 3.143 4.707c.63.24 1.301.347 1.974.314a5.34 5.34 0 0 0 3.869-1.6l-.904-1.696a4.31 4.31 0 0 1-2.758 1.227 2.892 2.892 0 0 1-2.728-1.86 2.895 2.895 0 0 1-.19-1.147 2.828 2.828 0 0 1 2.863-2.972 3.697 3.697 0 0 1 2.413 1.034l1.035-1.634a4.768 4.768 0 0 0-1.655-1.098Z" clip-rule="evenodd"/><path fill="#4498F7" d="M8.476.22 0 8.849l6.062 6.207 1.524-1.614-4.483-4.593 8.47-8.627H8.475Z"/><path fill="#4498F7" fill-rule="evenodd" d="M13.344.22 4.875 8.849l6.062 6.166 8.476-8.62V.22h-6.07Zm1.848 6.208a1.883 1.883 0 1 1 1.849-1.883 1.862 1.862 0 0 1-1.87 1.848l.021.035Z" clip-rule="evenodd"/></g><defs><clipPath id="a"><path fill="#fff" d="M0 0h100v15.172H0z"/></clipPath></defs></svg>
